!!!OTL: EINS ZWEI DREI VIER FUENF SECHS SIEBEN
!!!ARE: Europa, Mitteleuropa, Deutschland, Saarland
!!!SCT: K3047
!!!YEM: Copyright 1995, estate of Helmut Schaffrath.
**kern
*ICvox
*Ivox
*M4/4
*k[f#]
*G:
=1
{4d
4g
4g
4g
=2
4g
4f#
4a
4r}
=3
{4d
4a
4a
4a
=4
4a
4g
4b
4r}
=5
{4g
4b
4dd
4r
=6
4ee
4ee
4dd
4r}
=7
{4cc
4cc
4b
4b
=8
4a
4a
4g
4r}
==
!!!AGN: Kinder - Lied, Auszaehl - Reim
!!!ONB: ESAC (Essen Associative Code) Database: KINDER
!!!AMT: simple quadruple
!!!AIN: vox
!!!EED: Helmut Schaffrath
!!!EEV: 1.0
*-
